X:1102
T:"How Much Has She Got"  (jig)  1102
C:after Sgt J. O'Neill
B:O'Neill's Music Of Ireland (The 1850) Lyon & Healy, Chicago, 1903 edition
Z:FROM O'NEILL'S TO NOTEWORTHY, FROM NOTEWORTHY TO ABC, MIDI AND .TXT BY VINCE
BRENNAN July 2003 (HTTP://WWW.SOSYOURMOM.COM)
I:abc2nwc
M:6/8
L:1/8
K:A
f|aed cBA|ecA A2g|aed cBA|dBG G2g|
aed cBA|def efg|agf =gfe|dBG A2:|
|:B|A2a aec|aec ABA|=G2g gdB|=gdB G2B|
A2a aec|def efg|agf =gfe|dBG A2:|
